!!!COM: Corelli, Arcangelo
!!!OTL: Sonata da chiesa
!!!OPS: 3
!!!ONM: 6
!!!OMV: 3
!!!OMD: Allegro
**kern	**fb	**kern	**kern	**kern
*part4	*part4	*part3	*part2	*part1
*staff4	*	*staff3	*staff2	*staff1
*clefF4	*	*clefF4	*clefG2	*clefG2
*k[]	*	*k[]	*k[]	*k[]
*M4/4	*	*M4/4	*M4/4	*M4/4
*met(c)	*	*met(c)	*met(c)	*met(c)
=1	=1	=1	=1	=1
4r	.	1r	1r	2g
2G	5 3	.	.	.
.	4 2	.	.	4.a
4F#X	6	.	.	.
.	.	.	.	16gLL
.	.	.	.	16aJJ
=	=	=	=	=
4G	.	1r	1r	8bL
.	.	.	.	8g
4BB	6	.	.	8dd
.	.	.	.	8ddJ
4C	.	.	.	4ee
4AA	#6\	.	.	4ff#X
=	=	=	=	=
4GG	.	1r	2r	8ggL
.	.	.	.	16ddL
.	.	.	.	16ccJJ
4G	.	.	.	8bL
.	.	.	.	16aL
.	.	.	.	16gJJ
4.F#X	6	.	2dd	8aL
.	.	.	.	8dJ
.	.	.	.	[4dd
8F#	.	.	.	.
=	=	=	=	=
8GL	6 5	1r	4.ee	4dd]
8E	.	.	.	.
8A	#	.	.	4cc#X
8AAJ	.	.	16ddLL	.
.	.	.	16eeJJ	.
4.D	#	.	8ff#XL	8r
.	.	.	8dd	8aaL
.	.	.	8aa	8ff#X
8F#X	6	.	8aaJ	8ddJ
=	=	=	=	=
4E	7	1r	4bb	4.gg
4AA	7 #	.	4ccc#X	.
.	.	.	.	16aaLL
.	.	.	.	16ggJJ
4D	#	.	4.ddd	8ff#XL
.	.	.	.	8aJ
4r	.	.	.	[4dd
.	.	.	8dd	.
=	=	=	=	=
2r	.	2r	8eeL	8ddL]
.	.	.	16ff#XL	16ccL
.	.	.	16ggJJ	16bJJ
.	.	.	8aaL	4.cc
.	.	.	8aaJ	.
2GG	4	2GG	8ddL	.
.	.	.	(16eeL	(16bLL
.	.	.	16ff#JJ)	16aJJ)
.	3	.	[4gg	8bL
.	.	.	.	8ddJ
=	=	=	=	=
4.AA	7	4.AA	4gg]	16ccLL
.	.	.	.	16dd
.	.	.	.	16b
.	.	.	.	16ccJJ
.	#6\	.	4ff#X	4a
16GGLL	.	16GGLL	.	.
16AAJJ	.	16AAJJ	.	.
8BBL	6	8BBL	8ggL	4g
8GG	.	8GG	8b	.
8D	#	8D	8a	4r
8DJ	.	8DJ	8ddJ	.
=	=	=	=	=
4E	6	4E	8ccL	2r
.	.	.	8ee	.
4F#X	6	4F#X	8dd	.
.	.	.	8ccJ	.
4G	.	4G	8bL	2dd
.	.	.	8gJ	.
4F#	6	4F#	[4dd	.
=	=	=	=	=
4E	7	4E	4dd]	4.ee
4A	#	4A	4cc#X	.
.	.	.	.	16ddLL
.	.	.	.	16eeJJ
4.D	#	4.D	8r	8ff#XL
.	.	.	8aaL	8dd
.	.	.	8ff#X	8aa
8F#X	6	8F#X	8ddJ	8aaJ
=	=	=	=	=
4E	7	4E	4.gg	4bb
4AA	7 #	4AA	.	4ccc#X
.	.	.	16aaLL	.
.	.	.	16ggJJ	.
2D	#	2D	8ff#XL	4.ddd
.	.	.	8ddJ	.
.	.	.	[4ddd	.
.	.	.	.	8dd
=	=	=	=	=
2r	.	2r	4ddd]	8eeL
.	.	.	.	(16ff#XL
.	.	.	.	16ggJJ)
.	.	.	2ccc	(16aaLL
.	.	.	.	16gg
.	.	.	.	16ff#
.	.	.	.	16eeJJ)
2G	5 4	2G	.	8ddL
.	.	.	.	16eeL
.	.	.	.	16ff#JJ
.	3	.	[4bb	8ggL
.	.	.	.	8gJ
=	=	=	=	=
4.A	9	4.A	4bb]	4.cc
.	8	.	4.aa	.
16GLL	.	16GLL	.	(16bLL
16AJJ	.	16AJJ	.	16ccJJ)
4.B	7	4.B	.	4.dd
.	.	.	8dd	.
.	6	.	[4gg	.
8B	.	8B	.	(16ggLL
.	.	.	.	16ddJJ)
=	=	=	=	=
8cL	6 5	8cL	4gg]	8eeL
16BL	.	16BL	.	8ddJ
16cJJ	.	16cJJ	.	.
8dL	7 #	8dL	4ff#X	4cc
8DJ	.	8DJ	.	.
8GL	.	8GL	4gg	4.b
8A	.	8A	.	.
8B	6	8B	[4dd	.
8BBJ	.	8BBJ	.	8d
=	=	=	=	=
4.C	9	8CL	8ddL]	4.e
.	.	8D	8gJ	.
.	8	8E	2cc	.
8C	.	8CJ	.	(16dLL
.	.	.	.	16eJJ)
8DL	7 #	8DL	.	8f#XL
8D	.	8D	.	8dJ
8E	5	8E	4b	[4g
8BBJ	6	8BBJ	.	.
=	=	=	=	=
8CL	6 5	8CL	2a	4g]
8AA	.	8AA	.	.
8D	#	8D	.	4f#X
8DDJ	.	8DDJ	.	.
4GG	.	4GG	4g	8r
.	.	.	.	8ddL
4r	.	4r	4r	8b
.	.	.	.	8gJ
=	=	=	=	=
1r	.	1r	2r	8eL
.	.	.	.	8eeJ
.	.	.	.	16ccLL
.	.	.	.	16b
.	.	.	.	16a
.	.	.	.	16gJJ
.	.	.	8r	8f#XL
.	.	.	8ddL	8ff#X
.	.	.	8b	8dd
.	.	.	8gJ	8bJ
=	=	=	=	=
2r	.	2r	8eL	8gL
.	.	.	8eeJ	8ggJ
.	.	.	(16ccLL	(16eeLL
.	.	.	16b	16dd
.	.	.	16a	16cc
.	.	.	16gJJ)	16bJJ)
2D	5 #	2D	8f#XL	8aL
.	.	.	8ff#X	8aa
.	6	.	8dd	8ff#X
.	.	.	8bJ	8ddJ
=	=	=	=	=
4.E	5	4.E	8gL	4b
.	.	.	(16aL	.
.	.	.	16bJJ)	.
.	6	.	4.cc	8r
16DLL	.	16DLL	.	8ee
16EJJ	.	16EJJ	.	.
8F#XL	6 5	8F#XL	.	4.dd
8D	.	8D	(16bLL	.
.	.	.	16aJJ)	.
8G	.	8G	8bL	.
8GJ	.	8GJ	(16ccL	(16eeLL
.	.	.	16bJJ)	16ddJJ)
=	=	=	=	=
4G	4 2	4G	4a	4.cc
4F#X	.	4F#X	4aa	.
.	.	.	.	(16ddLL
.	.	.	.	16ccJJ)
8GL	9	8GL	8aaL	4.b
8GG	.	8GG	8ddJ	.
8BB	6	8BB	[4gg	.
8GGJ	.	8GGJ	.	8bb
=	=	=	=	=
8DL	5 4	8DL	4gg]	4.aa
8E	.	8E	.	.
8F#X	6	8F#X	4.ff#X	.
8D#XJ	5	8D#XJ	.	(16bbLL
.	.	.	.	16aaJJ)
4.E	9	8EL	.	4.gg
.	.	8F#	8b	.
.	8	8G	[4ee	.
8E	6	8EJ	.	(16aaLL
.	.	.	.	16ggJJ)
=	=	=	=	=
8AL	#6\ 5	8AL	4ee]	(16ff#XLL
.	.	.	.	16gg
8F#X	.	8F#X	.	16aa
.	.	.	.	16ggJJ)
8B	#	8B	4dd#X	4ff#
8BBJ	.	8BBJ	.	.
4E	.	4E	4ee	8eeL
.	.	.	.	8b
8r	.	8r	[4e	8g
8GG	6	8GG	.	8eJ
=	=	=	=	=
4.AA	5	4.AA	8eL]	8cL
.	.	.	8eJ	8ccJ
.	#6\	.	4.f#X	(16aLL
.	.	.	.	16g
8AA	.	8AA	.	16f#X
.	.	.	.	16eJJ)
4.BB	#5\	4.BB	.	8dL
.	.	.	8f#	8dd
.	6	.	[4g	8b
8BB	.	8BB	.	8gJ
=	=	=	=	=
4.C	5	4.C	8gL]	8eL
.	.	.	8gJ	8eeJ
.	6	.	4.a	(16ccLL
.	.	.	.	16b
8C	.	8C	.	16a
.	.	.	.	16gJJ)
4.D	5 #	4.D	.	8f#XL
.	.	.	8a	8ff#X
.	6	.	[4b	8dd
8D	.	8D	.	8bJ
=	=	=	=	=
4.E	5	4.E	8bL]	8gL
.	.	.	8bJ	8gg
.	6	.	4.cc	8ee
8C	6	8C	.	8aaJ
4D	7 #	4D	.	8ff#XL
.	.	.	(16bLL	8ddJ
.	.	.	16aJJ)	.
8r	.	8r	8bL	[4gg
8BB	6	8BB	(16ccL	.
.	.	.	16bJJ)	.
=	=	=	=	=
8CL	6 5	8CL	4a	8ggL]
8AA	.	8AA	.	(16aaL
.	.	.	.	16ggJJ)
8D	#	8D	4.aa	8ff#XL
8DDJ	.	8DDJ	.	(16ggL
.	.	.	.	16aaJJ)
8GGL	9	8GGL	.	4.bb
8G	.	8G	8dd	.
8B	6	8B	[4gg	.
8GJ	.	8GJ	.	16aaLL
.	.	.	.	16ggJJ
=	=	=	=	=
8dL	4	8dL	8ggL]	8aaL
8D	.	8D	(16aaL	8aJ
.	.	.	16ggJJ)	.
8F#X	6	8F#X	8ff#XL	2dd
8DJ	.	8DJ	(16ggL	.
.	.	.	16ff#JJ)	.
8GL	6 5	8GL	2ee	.
8E	.	8E	.	.
8A	#	8A	.	4cc#X
8AAJ	.	8AAJ	.	.
=	=	=	=	=
2D	.	2D	8ddL	8r
.	.	.	8ff#X	8ddL
.	.	.	8dd	8b
.	.	.	8bJ	8gJ
2r	.	2r	8gL	8eL
.	.	.	8ggJ	8eeJ
.	.	.	(16eeLL	(16ccniLL
.	.	.	16dd	16b
.	.	.	16cc	16a
.	.	.	16bJJ)	16gJJ)
=	=	=	=	=
2r	.	2r	8aL	8f#XL
.	.	.	8aa	8ff#X
.	.	.	8ff#X	8dd
.	.	.	8ddJ	8bJ
8r	.	8r	8bL	4g
8GL	.	8GL	8gJ	.
8E	6	8E	[4cc	8r
8CJ	.	8CJ	.	8ee
=	=	=	=	=
8AAL	#6\	8AAL	8ccL]	4.ff#X
8A	.	8AJ	8ccJ	.
8F#X	6	16F#XLL	4.dd	.
.	.	16E	.	.
8DJ	.	16D	.	8ff#
.	.	16CJJ	.	.
8BBL	6	8BBL	.	4.gg
8B	.	8B	8dd	.
8G	6	8G	[4ee	.
8EJ	.	8EJ	.	8gg
=	=	=	=	=
8CL	6	8CL	8eeL]	4.aa
8c	.	8cJ	8eeJ	.
8A	#6\	16ALL	4.ff#X	.
.	.	16G	.	.
8F#XJ	.	16F#X	.	8aa
.	.	16EJJ	.	.
8DL	#	8DL	.	4.bb
8d	.	8d	8ff#	.
8B	6	8B	[4gg	.
8GJ	.	8GJ	.	8bb
=	=	=	=	=
8EL	6	8EL	8ggL]	4.ccc
8e	.	8eJ	8gJ	.
8c	6	16cLL	4.cc	.
.	.	16B	.	.
8AJ	.	16A	.	8cc
.	.	16GJJ	.	.
8F#XL	6 5	8F#XL	.	4.dd
8D	.	8D	(16ddLL	.
.	.	.	16ccJJ)	.
8G	.	8G	8bL	.
8BBJ	.	8BBJ	8ddJ	8gg
=	=	=	=	=
4C	.	4C	8ccL	8eeL
.	.	.	8b	8dd
4GG	.	4GG	8a	8cc
.	.	.	8gJ	8bJ
4D	#	4D	4f#X	8aL
.	.	.	.	8aa
4r	.	4r	[4dd	8ff#X
.	.	.	.	8ddJ
=	=	=	=	=
2G	5	2G	4dd]	8bL
.	.	.	.	8bb
.	6	.	4.ee	8gg
.	.	.	.	8eeJ
4.A	5	4.A	.	8ccL
.	.	.	(16ddLL	8ccc
.	.	.	16eeJJ)	.
.	#6\	.	[4ff#X	8aa
16GLL	.	16GLL	.	8ff#XJ
16AJJ	.	16AJJ	.	.
=	=	=	=	=
8BL	#5\	8BL	4ff#]	2dd
8d	.	8d	.	.
8B	6	8B	2gg	.
8GJ	.	8GJ	.	.
8cL	5	8cL	.	4.ee
8e	.	8e	.	.
8c	6	8c	[4aa	.
8AJ	.	8AJ	.	(16ddLL
.	.	.	.	16eeJJ)
=	=	=	=	=
4d	#	4d	8aaL]	4.ff#X
.	.	.	16ggL	.
.	.	.	16aaJJ	.
4D	6	4D	4.bb	.
.	.	.	.	8dd
4.E	5	4.E	.	4.gg
.	.	.	8gg	.
.	6	.	[4ccc	.
16DLL	.	16DLL	.	16ff#LL
16EJJ	.	16EJJ	.	16eeJJ
=	=	=	=	=
8F#XL	6 5	8F#XL	8cccL]	4aa
8D	.	8D	(16ddL	.
.	.	.	16ccJJ)	.
8G	3	8G	8bL	4.dd
8BBJ	.	8BBJ	8ddJ	.
4.C	9	4.C	4.e	.
.	.	.	.	8g
.	8	.	.	[4cc
8C	6	8C	8a	.
=	=	=	=	=
2D	7 #	2D	8f#XL	4cc]
.	.	.	8dJ	.
.	6 4	.	2g	4b
2DD	5 4	2DD	.	2a
.	#	.	4f#	.
=	=	=	=	=
1GG	.	1GG	1g	1g
=:|!	=:|!	=:|!	=:|!	=:|!
*-	*-	*-	*-	*-
!!!system-decoration: [{s1,s2},s3,s4]
!!!YEM: CC BY-NC-SA 4.0; CCARH; DCML
!!!RDF**kern: i = editorial accidental